X:4
T:GB/7a/4 Green Mossy Banks of the Lea Version 1 of 4 
%%VWML:GB-7a-4-0
F:http://www.vwml.org/record/GB/7a/4
C:Transcribed by Simon Furey and Lewis Jones
L:1/4
M:3/4
I:linebreak $
K:Daeo
D | F A A | F G E | C D E | F G A | F G E | D2 :| D | F G A | B G B | c F2- | F2 F |$ B A B | c B c | d3- | d2 d | c B A | G A G/F/ | D E F | G A A | F G E | D2 |]
